public/assets/sponsors/interview-cake-dark.svg

<svg viewBox="0 0 1754 1850" fill="none" xmlns="http://www.w3.org/2000/svg">
<path d="M1270.55 0.166992C1209.45 5.72199 1150.2 11.277 1090.94 18.6837C722.46 63.1237 403.973 146.449 161.405 259.4C104.003 287.175 50.3051 314.95 0.310059 344.577V1422.25L1753.84 1849.98V757.499L1270.55 0.166992ZM1594.59 1648.15L161.405 1298.19V975.995L1594.59 1331.52V1648.15ZM1594.59 1166.72L163.257 811.197V489.007L1596.45 844.527C1594.6 844.527 1594.59 1166.72 1594.59 1166.72Z" fill="white"/>
</svg>

<svg xmlns="http://www.w3.org/2000/svg" viewBox="0 0 1754 1850" fill="none" xmlns:v="https://vecta.io/nano"><path d="M1270.55.167l-179.61 18.517C722.46 63.124 403.973 146.449 161.405 259.4 104.003 287.175 50.305 314.95.31 344.577V1422.25l1753.53 427.73V757.499L1270.55.167zm324.04 1647.983L161.405 1298.19V975.995L1594.59 1331.52v316.63zm0-481.43L163.257 811.197v-322.19l1433.193 355.52c-1.85 0-1.86 322.193-1.86 322.193z" fill="#fff"/></svg>
